resources/modules/editor/src/svgs/button.svg

<!-- Generated by IcoMoon.io -->
<svg version="1.1" xmlns="http://www.w3.org/2000/svg" width="32" height="32" viewBox="0 0 32 32">
<title>button</title>
<path d="M14.432 12.16c-0.192-0.16-0.48-0.224-0.704-0.096-0.256 0.096-0.384 0.352-0.384 0.608v12c0 0.256 0.16 0.512 0.416 0.608 0.224 0.096 0.512 0.032 0.704-0.128l2.016-2.016 2.272 4.512c0.064 0.16 0.224 0.288 0.384 0.32 0.064 0.032 0.128 0.032 0.192 0.032 0.128 0 0.256-0.032 0.352-0.096l2.976-1.728c0.16-0.096 0.256-0.256 0.32-0.416 0.032-0.192 0-0.352-0.096-0.512l-2.368-3.904h2.816c0.288 0 0.544-0.192 0.64-0.448s0-0.544-0.192-0.736l-9.344-8zM19.328 20c-0.224 0-0.448 0.128-0.576 0.352-0.128 0.192-0.128 0.448 0 0.672l2.656 4.32-1.792 1.056-2.336-4.704c-0.096-0.192-0.288-0.32-0.512-0.352-0.032 0-0.064 0-0.096 0-0.192 0-0.352 0.064-0.48 0.192l-1.536 1.504v-8.928l6.88 5.888c0 0-2.208 0-2.208 0zM28.672 4h-25.344c-1.824 0-3.328 1.504-3.328 3.328v8c0 1.856 1.504 3.328 3.328 3.328h8c0.384 0 0.672-0.288 0.672-0.672s-0.288-0.64-0.672-0.64h-8c-1.088 0-1.984-0.896-1.984-2.016v-8c0-1.088 0.896-1.984 1.984-1.984h25.344c1.088 0 1.984 0.896 1.984 1.984v8c0 1.12-0.896 2.016-1.984 2.016h-4.672c-0.352 0-0.672 0.288-0.672 0.64s0.32 0.672 0.672 0.672h4.672c1.824 0 3.328-1.472 3.328-3.328v-8c0-1.824-1.504-3.328-3.328-3.328z"></path>
</svg>

<svg width="32" height="32" viewBox="0 0 32 32" fill="none" xmlns="http://www.w3.org/2000/svg">
<g clip-path="url(#clip0_4010_1016)">
<path d="M14.432 12.16C14.24 12 13.952 11.936 13.728 12.064C13.472 12.16 13.344 12.416 13.344 12.672V24.672C13.344 24.928 13.504 25.184 13.76 25.28C13.984 25.376 14.272 25.312 14.464 25.152L16.48 23.136L18.752 27.648C18.816 27.808 18.976 27.936 19.136 27.968C19.2 28 19.264 28 19.328 28C19.456 28 19.584 27.968 19.68 27.904L22.656 26.176C22.816 26.08 22.912 25.92 22.976 25.76C23.008 25.568 22.976 25.408 22.88 25.248L20.512 21.344H23.328C23.616 21.344 23.872 21.152 23.968 20.896C24.064 20.64 23.968 20.352 23.776 20.16L14.432 12.16ZM19.328 20C19.104 20 18.88 20.128 18.752 20.352C18.624 20.544 18.624 20.8 18.752 21.024L21.408 25.344L19.616 26.4L17.28 21.696C17.184 21.504 16.992 21.376 16.768 21.344C16.736 21.344 16.704 21.344 16.672 21.344C16.48 21.344 16.32 21.408 16.192 21.536L14.656 23.04V14.112L21.536 20H19.328V20ZM28.672 4H3.328C1.504 4 0 5.504 0 7.328V15.328C0 17.184 1.504 18.656 3.328 18.656H11.328C11.712 18.656 12 18.368 12 17.984C12 17.6 11.712 17.344 11.328 17.344H3.328C2.24 17.344 1.344 16.448 1.344 15.328V7.328C1.344 6.24 2.24 5.344 3.328 5.344H28.672C29.76 5.344 30.656 6.24 30.656 7.328V15.328C30.656 16.448 29.76 17.344 28.672 17.344H24C23.648 17.344 23.328 17.632 23.328 17.984C23.328 18.336 23.648 18.656 24 18.656H28.672C30.496 18.656 32 17.184 32 15.328V7.328C32 5.504 30.496 4 28.672 4V4Z" fill="black"/>
</g>
<defs>
<clipPath id="clip0_4010_1016">
<rect width="32" height="32" fill="white"/>
</clipPath>
</defs>
</svg>
